images/Manifold.svg

<svg height="250" viewBox="0 0 250 250" width="250" xmlns="http://www.w3.org/2000/svg"><path d="m123.699219 0h2.601562c68.316407 0 123.699219 55.382812 123.699219 123.699219v2.601562c0 68.316407-55.382812 123.699219-123.699219 123.699219h-2.601562c-68.316407 0-123.699219-55.382812-123.699219-123.699219v-2.601562c0-68.316407 55.382812-123.699219 123.699219-123.699219zm0 0"/><g fill="#fff"><path d="m107.929688 63.332031c-17.964844 1.921875-33.125 14.410157-38.394532 31.671875-1.84375 6.050782-2.492187 12.824219-1.6875 17.964844.128906.855469.15625.832031 1.558594-1.6875 6.125-11.136719 16.820312-18.925781 29.464844-21.417969 4.230468-.855469 11.578125-.832031 15.546875 0 17.578125 3.714844 30.636719 16.902344 34.425781 34.683594l.441406 2.078125.882813-1.949219c5.011719-10.980469 5.527343-23.128906 1.453125-34.136719-1.167969-3.167968-3.6875-7.761718-5.789063-10.539062-6.777343-9.0625-16.925781-14.980469-28.246093-16.460938-2.671876-.363281-7.371094-.464843-9.65625-.207031zm0 0"/><path d="m155.179688 85.582031c0 .050781.542968.882813 1.21875 1.867188 1.609374 2.414062 3.996093 7.449219 4.984374 10.59375 1.347657 4.230469 1.894532 7.941406 1.921876 13.132812.023437 6.074219-.703126 10.175781-2.859376 15.835938-4.773437 12.617187-15.054687 22.480469-27.800781 26.738281-6.957031 2.3125-14.746093 2.882812-21.546875 1.585938-1.324218-.261719-2.386718-.363282-2.386718-.261719 0 .363281 5.214843 5.660156 6.824218 6.957031 5.660156 4.46875 11.917969 7.375 19.132813 8.878906 3.921875.804688 10.59375.832032 14.851562.027344 21.441407-4.050781 36.394531-23.054688 35.433594-45.066406-.726563-16.25-10.019531-30.867188-24.195313-37.980469-2.203124-1.117187-5.578124-2.515625-5.578124-2.308594zm0 0"/><path d="m99.234375 99.730469c-10.332031 1.839843-19.574219 7.449219-26.140625 15.886719-4.207031 5.398437-7.089844 11.835937-8.570312 19.183593-.777344 3.945313-.828126 11.683594-.101563 15.707031 3.21875 17.753907 15.703125 31.410157 32.605469 35.667969 12.71875 3.191407 26.789062-.050781 36.992187-8.539062l1.738281-1.429688-3.996093-.15625c-13.734375-.542969-25.832031-7.269531-33.851563-18.820312-6.800781-9.761719-9.425781-22.921875-6.957031-34.890625.699219-3.425782 1.894531-6.777344 3.765625-10.515625 1.996094-4.074219 4.359375-7.550781 7.214844-10.5625l1.894531-2.027344-.984375.027344c-.574219 0-2.183594.234375-3.609375.46875zm0 0"/></g></svg>

<svg xmlns="http://www.w3.org/2000/svg" xmlns:xlink="http://www.w3.org/1999/xlink" width="250px" height="250px" viewBox="0 0 250 250" version="1.1">
<g id="surface1">
<path style=" stroke:none;fill-rule:nonzero;fill:rgb(0%,0%,0%);fill-opacity:1;" d="M 123.699219 0 L 126.300781 0 C 194.617188 0 250 55.382812 250 123.699219 L 250 126.300781 C 250 194.617188 194.617188 250 126.300781 250 L 123.699219 250 C 55.382812 250 0 194.617188 0 126.300781 L 0 123.699219 C 0 55.382812 55.382812 0 123.699219 0 Z M 123.699219 0 "/>
<path style=" stroke:none;fill-rule:nonzero;fill:rgb(100%,100%,100%);fill-opacity:1;" d="M 107.929688 63.332031 C 89.964844 65.253906 74.804688 77.742188 69.535156 95.003906 C 67.691406 101.054688 67.042969 107.828125 67.847656 112.96875 C 67.976562 113.824219 68.003906 113.800781 69.40625 111.28125 C 75.53125 100.144531 86.226562 92.355469 98.871094 89.863281 C 103.101562 89.007812 110.449219 89.03125 114.417969 89.863281 C 131.996094 93.578125 145.054688 106.765625 148.84375 124.546875 L 149.285156 126.625 L 150.167969 124.675781 C 155.179688 113.695312 155.695312 101.546875 151.621094 90.539062 C 150.453125 87.371094 147.933594 82.777344 145.832031 80 C 139.054688 70.9375 128.90625 65.019531 117.585938 63.539062 C 114.914062 63.175781 110.214844 63.074219 107.929688 63.332031 Z M 107.929688 63.332031 "/>
<path style=" stroke:none;fill-rule:nonzero;fill:rgb(100%,100%,100%);fill-opacity:1;" d="M 155.179688 85.582031 C 155.179688 85.632812 155.722656 86.464844 156.398438 87.449219 C 158.007812 89.863281 160.394531 94.898438 161.382812 98.042969 C 162.730469 102.273438 163.277344 105.984375 163.304688 111.175781 C 163.328125 117.25 162.601562 121.351562 160.445312 127.011719 C 155.671875 139.628906 145.390625 149.492188 132.644531 153.75 C 125.6875 156.0625 117.898438 156.632812 111.097656 155.335938 C 109.773438 155.074219 108.710938 154.972656 108.710938 155.074219 C 108.710938 155.4375 113.925781 160.734375 115.535156 162.03125 C 121.195312 166.5 127.453125 169.40625 134.667969 170.910156 C 138.589844 171.714844 145.261719 171.742188 149.519531 170.9375 C 170.960938 166.886719 185.914062 147.882812 184.953125 125.871094 C 184.226562 109.621094 174.933594 95.003906 160.757812 87.890625 C 158.554688 86.773438 155.179688 85.375 155.179688 85.582031 Z M 155.179688 85.582031 "/>
<path style=" stroke:none;fill-rule:nonzero;fill:rgb(100%,100%,100%);fill-opacity:1;" d="M 99.234375 99.730469 C 88.902344 101.570312 79.660156 107.179688 73.09375 115.617188 C 68.886719 121.015625 66.003906 127.453125 64.523438 134.800781 C 63.746094 138.746094 63.695312 146.484375 64.421875 150.507812 C 67.640625 168.261719 80.125 181.917969 97.027344 186.175781 C 109.746094 189.367188 123.816406 186.125 134.019531 177.636719 L 135.757812 176.207031 L 131.761719 176.050781 C 118.027344 175.507812 105.929688 168.78125 97.910156 157.230469 C 91.109375 147.46875 88.484375 134.308594 90.953125 122.339844 C 91.652344 118.914062 92.847656 115.5625 94.71875 111.824219 C 96.714844 107.75 99.078125 104.273438 101.933594 101.261719 L 103.828125 99.234375 L 102.84375 99.261719 C 102.269531 99.261719 100.660156 99.496094 99.234375 99.730469 Z M 99.234375 99.730469 "/>
</g>
</svg>
